_site/images/ok-o.svg

<svg version="1.1" xmlns="http://www.w3.org/2000/svg" xmlns:xlink="http://www.w3.org/1999/xlink" width="40" height="40" viewBox="0 0 768 768" >
  <path
    fill="#3cb371"
    d="M384 32q71.75 0 136.875 27.875t112.25 75 75 112.25 27.875 136.875-27.875 136.875-75 112.25-112.25 75-136.875 27.875-136.875-27.875-112.25-75-75-112.25-27.875-136.875 27.875-136.875 75-112.25 112.25-75 136.875-27.875zM384 96q-58.5 0-111.875 22.875t-91.875 61.375-61.375 91.875-22.875 111.875 22.875 111.875 61.375 91.875 91.875 61.375 111.875 22.875 111.875-22.875 91.875-61.375 61.375-91.875 22.875-111.875-22.875-111.875-61.375-91.875-91.875-61.375-111.875-22.875zM491.75 287.75q13.25 0 22.625 9.375t9.375 22.625-9.5 22.75l-135.75 135.75q-9.25 9.25-22.5 9.25-13.5 0-22.75-9.25l-68-67.75q-9.25-9.25-9.25-22.75 0-13.25 9.375-22.625t22.625-9.375 22.75 9.5l45.25 45.25 113-113.25q9.5-9.5 22.75-9.5z"
  ></path>
</svg>

<svg xmlns="http://www.w3.org/2000/svg" width="40" height="40" viewBox="0 0 768 768"><path fill="#3cb371" d="M384 32q71.75 0 136.875 27.875t112.25 75 75 112.25T736 384t-27.875 136.875-75 112.25-112.25 75T384 736t-136.875-27.875-112.25-75-75-112.25T32 384t27.875-136.875 75-112.25 112.25-75T384 32zm0 64q-58.5 0-111.875 22.875T180.25 180.25t-61.375 91.875T96 384t22.875 111.875 61.375 91.875 91.875 61.375T384 672t111.875-22.875 91.875-61.375 61.375-91.875T672 384t-22.875-111.875-61.375-91.875-91.875-61.375T384 96zm107.75 191.75q13.25 0 22.625 9.375t9.375 22.625-9.5 22.75L378.5 478.25q-9.25 9.25-22.5 9.25-13.5 0-22.75-9.25l-68-67.75q-9.25-9.25-9.25-22.75 0-13.25 9.375-22.625T288 355.75t22.75 9.5L356 410.5l113-113.25q9.5-9.5 22.75-9.5z"/></svg>
